static/img/in-field/inputs-error.svg

<svg width="468" height="94" viewBox="0 0 468 94" fill="none" xmlns="http://www.w3.org/2000/svg">
<rect x="2" y="2" width="464" height="52" rx="2" fill="white"/>
<path d="M22.9717 37H21.1348V22.9062H16.1934V21.2949H27.8916V22.9062H22.9717V37ZM34.7803 25.0117C35.7829 25.0117 36.6423 25.2337 37.3584 25.6777C38.0745 26.1217 38.6224 26.7448 39.002 27.5469C39.3815 28.3418 39.5713 29.2728 39.5713 30.3398V31.4463H31.4395C31.4609 32.8285 31.8047 33.8812 32.4707 34.6045C33.1367 35.3278 34.0749 35.6895 35.2852 35.6895C36.0299 35.6895 36.6888 35.6214 37.2617 35.4854C37.8346 35.3493 38.429 35.1488 39.0449 34.8838V36.4521C38.4505 36.7171 37.8597 36.9105 37.2725 37.0322C36.6924 37.154 36.0049 37.2148 35.21 37.2148C34.0785 37.2148 33.0902 36.9857 32.2451 36.5273C31.4072 36.0618 30.7555 35.3815 30.29 34.4863C29.8245 33.5911 29.5918 32.4954 29.5918 31.1992C29.5918 29.9316 29.8031 28.8359 30.2256 27.9121C30.6553 26.9811 31.2568 26.265 32.0303 25.7637C32.8109 25.2624 33.7275 25.0117 34.7803 25.0117ZM34.7588 26.4727C33.8063 26.4727 33.0472 26.7842 32.4814 27.4072C31.9157 28.0303 31.5791 28.9004 31.4717 30.0176H37.7021C37.695 29.3158 37.584 28.6999 37.3691 28.1699C37.1615 27.6328 36.8428 27.2174 36.4131 26.9238C35.9834 26.623 35.432 26.4727 34.7588 26.4727ZM45.6543 30.9736L41.583 25.2266H43.624L46.7285 29.7598L49.8223 25.2266H51.8418L47.7705 30.9736L52.0674 37H50.0264L46.7285 32.1982L43.4092 37H41.3896L45.6543 30.9736ZM58.4189 35.7539C58.7126 35.7539 59.0133 35.7288 59.3213 35.6787C59.6292 35.6286 59.8799 35.5677 60.0732 35.4961V36.8818C59.8656 36.9749 59.5755 37.0537 59.2031 37.1182C58.8379 37.1826 58.4798 37.2148 58.1289 37.2148C57.5059 37.2148 56.9401 37.1074 56.4316 36.8926C55.9232 36.6706 55.515 36.2982 55.207 35.7754C54.9062 35.2526 54.7559 34.5293 54.7559 33.6055V26.623H53.0801V25.7529L54.7666 25.0547L55.4756 22.498H56.5498V25.2266H59.998V26.623H56.5498V33.5518C56.5498 34.2894 56.7181 34.8408 57.0547 35.2061C57.3984 35.5713 57.8532 35.7539 58.4189 35.7539ZM68.9414 37V21.2949H70.7676V37H68.9414ZM80.6426 25.0117C82.0391 25.0117 83.0954 25.3555 83.8115 26.043C84.5277 26.7233 84.8857 27.819 84.8857 29.3301V37H83.124V29.4482C83.124 28.4671 82.8984 27.7331 82.4473 27.2461C82.0033 26.7591 81.3193 26.5156 80.3955 26.5156C79.0921 26.5156 78.1755 26.8844 77.6455 27.6221C77.1156 28.3597 76.8506 29.4303 76.8506 30.834V37H75.0674V25.2266H76.5068L76.7754 26.9238H76.8721C77.1227 26.5085 77.4414 26.1611 77.8281 25.8818C78.2148 25.5954 78.6481 25.3805 79.1279 25.2373C79.6077 25.0869 80.1126 25.0117 80.6426 25.0117ZM94.3418 25.0117C95.8099 25.0117 96.9808 25.5166 97.8545 26.5264C98.7282 27.5361 99.165 29.0544 99.165 31.0811C99.165 32.4202 98.9645 33.5446 98.5635 34.4541C98.1624 35.3636 97.5967 36.0511 96.8662 36.5166C96.1429 36.9821 95.2871 37.2148 94.2988 37.2148C93.6758 37.2148 93.1279 37.1325 92.6553 36.9678C92.1826 36.8031 91.778 36.5811 91.4414 36.3018C91.1048 36.0225 90.8255 35.7181 90.6035 35.3887H90.4746C90.4961 35.668 90.5212 36.0046 90.5498 36.3984C90.5856 36.7923 90.6035 37.1361 90.6035 37.4297V42.2637H88.8096V25.2266H90.2812L90.5176 26.9668H90.6035C90.8327 26.6087 91.112 26.2829 91.4414 25.9893C91.7708 25.6885 92.1719 25.4521 92.6445 25.2803C93.1243 25.1012 93.6901 25.0117 94.3418 25.0117ZM94.0303 26.5156C93.2139 26.5156 92.555 26.6732 92.0537 26.9883C91.5596 27.3034 91.1979 27.776 90.9688 28.4062C90.7396 29.0293 90.6178 29.8135 90.6035 30.7588V31.1025C90.6035 32.098 90.7109 32.9395 90.9258 33.627C91.1478 34.3145 91.5094 34.8372 92.0107 35.1953C92.5192 35.5534 93.1995 35.7324 94.0518 35.7324C94.7822 35.7324 95.391 35.5355 95.8779 35.1416C96.3649 34.7477 96.7266 34.1999 96.9629 33.498C97.2064 32.7891 97.3281 31.9762 97.3281 31.0596C97.3281 29.6702 97.056 28.5674 96.5117 27.751C95.9746 26.9274 95.1475 26.5156 94.0303 26.5156ZM112.252 25.2266V37H110.791L110.533 35.3457H110.437C110.193 35.7539 109.878 36.0977 109.491 36.377C109.104 36.6562 108.668 36.8639 108.181 37C107.701 37.1432 107.189 37.2148 106.645 37.2148C105.714 37.2148 104.933 37.0645 104.303 36.7637C103.673 36.4629 103.196 35.9974 102.874 35.3672C102.559 34.737 102.401 33.9277 102.401 32.9395V25.2266H104.206V32.8105C104.206 33.7917 104.428 34.5257 104.872 35.0127C105.316 35.4925 105.993 35.7324 106.902 35.7324C107.776 35.7324 108.471 35.5677 108.986 35.2383C109.509 34.9089 109.885 34.4255 110.114 33.7881C110.343 33.1436 110.458 32.3558 110.458 31.4248V25.2266H112.252ZM120.075 35.7539C120.369 35.7539 120.67 35.7288 120.978 35.6787C121.285 35.6286 121.536 35.5677 121.729 35.4961V36.8818C121.522 36.9749 121.232 37.0537 120.859 37.1182C120.494 37.1826 120.136 37.2148 119.785 37.2148C119.162 37.2148 118.596 37.1074 118.088 36.8926C117.579 36.6706 117.171 36.2982 116.863 35.7754C116.562 35.2526 116.412 34.5293 116.412 33.6055V26.623H114.736V25.7529L116.423 25.0547L117.132 22.498H118.206V25.2266H121.654V26.623H118.206V33.5518C118.206 34.2894 118.374 34.8408 118.711 35.2061C119.055 35.5713 119.509 35.7539 120.075 35.7539Z" fill="#252A2E"/>
<rect x="2" y="2" width="464" height="52" rx="2" stroke="#DA212C" stroke-width="4"/>
<g clip-path="url(#clip0_7345_83030)">
<path d="M25.3875 66.0563H7.5C5.025 66.0563 3 68.0813 3 70.5563V88.5C3 90.975 5.025 93 7.5 93H25.3875C27.8625 93 29.8875 90.975 29.8875 88.5V70.5563C29.8875 68.0813 27.9187 66.0563 25.3875 66.0563Z" fill="#DA212C"/>
<path d="M25.3875 68.025C26.7937 68.025 27.9187 69.15 27.9187 70.5563V88.5C27.9187 89.9063 26.7937 91.0313 25.3875 91.0313H7.5C6.09375 91.0313 4.96875 89.9063 4.96875 88.5V70.5563C4.96875 69.15 6.09375 68.025 7.5 68.025H25.3875ZM25.3875 66.0563H7.5C5.025 66.0563 3 68.0813 3 70.5563V88.5C3 90.975 5.025 93 7.5 93H25.3875C27.8625 93 29.8875 90.975 29.8875 88.5V70.5563C29.8875 68.0813 27.9187 66.0563 25.3875 66.0563Z" fill="#9B1118"/>
<path d="M21.4499 82.875L17.9624 79.4438L21.5062 75.9563L19.9874 74.4375L16.4999 77.9813L13.0124 74.4375L11.4937 75.9563L15.0374 79.4438L11.6062 82.875L13.0687 84.3938L16.4999 80.9625L19.9312 84.3938L21.4499 82.875Z" fill="white"/>
</g>
<path d="M39.1592 88V72.2949H40.9854V88H39.1592ZM53.3418 88V80.3838C53.3418 79.4242 53.1234 78.708 52.6865 78.2354C52.2497 77.7627 51.5658 77.5264 50.6348 77.5264C49.403 77.5264 48.5007 77.8594 47.9277 78.5254C47.3548 79.1914 47.0684 80.2907 47.0684 81.8232V88H45.2852V76.2266H46.7354L47.0254 77.8379H47.1113C47.4766 77.2578 47.9886 76.8102 48.6475 76.4951C49.3063 76.1729 50.0404 76.0117 50.8496 76.0117C52.2676 76.0117 53.3346 76.3555 54.0508 77.043C54.7669 77.7233 55.125 78.8154 55.125 80.3193V88H53.3418ZM61.627 88L57.1582 76.2266H59.0703L61.6055 83.209C62.1784 84.8418 62.515 85.9017 62.6152 86.3887H62.7012C62.7799 86.0091 63.027 85.2249 63.4424 84.0361C63.8649 82.8402 64.8066 80.237 66.2676 76.2266H68.1797L63.7109 88H61.627ZM77.5605 88L77.2061 86.3242H77.1201C76.5329 87.0618 75.9456 87.5632 75.3584 87.8281C74.7783 88.0859 74.0514 88.2148 73.1777 88.2148C72.0104 88.2148 71.0938 87.9141 70.4277 87.3125C69.7689 86.7109 69.4395 85.8551 69.4395 84.7451C69.4395 82.3675 71.3408 81.1214 75.1436 81.0068L77.1416 80.9424V80.2119C77.1416 79.2881 76.9411 78.6077 76.54 78.1709C76.1462 77.7269 75.5124 77.5049 74.6387 77.5049C73.6576 77.5049 72.5475 77.8057 71.3086 78.4072L70.7607 77.043C71.3408 76.7279 71.9746 76.4808 72.6621 76.3018C73.3568 76.1227 74.0514 76.0332 74.7461 76.0332C76.1497 76.0332 77.1882 76.3447 77.8613 76.9678C78.5417 77.5908 78.8818 78.5898 78.8818 79.9648V88H77.5605ZM73.5322 86.7432C74.6423 86.7432 75.5124 86.4388 76.1426 85.8301C76.7799 85.2214 77.0986 84.3691 77.0986 83.2734V82.21L75.3154 82.2852C73.8975 82.3353 72.8734 82.5573 72.2432 82.9512C71.6201 83.3379 71.3086 83.943 71.3086 84.7666C71.3086 85.4111 71.502 85.9017 71.8887 86.2383C72.2826 86.5749 72.8304 86.7432 73.5322 86.7432ZM84.5996 88H82.8164V71.2852H84.5996V88ZM90.4141 88H88.6309V76.2266H90.4141V88ZM88.4805 73.0361C88.4805 72.6279 88.5807 72.3307 88.7812 72.1445C88.9818 71.9512 89.2324 71.8545 89.5332 71.8545C89.8197 71.8545 90.0667 71.9512 90.2744 72.1445C90.4821 72.3379 90.5859 72.6351 90.5859 73.0361C90.5859 73.4372 90.4821 73.738 90.2744 73.9385C90.0667 74.1318 89.8197 74.2285 89.5332 74.2285C89.2324 74.2285 88.9818 74.1318 88.7812 73.9385C88.5807 73.738 88.4805 73.4372 88.4805 73.0361ZM102.459 86.4209H102.362C101.539 87.6169 100.307 88.2148 98.667 88.2148C97.1273 88.2148 95.9277 87.6885 95.0684 86.6357C94.2161 85.583 93.79 84.0863 93.79 82.1455C93.79 80.2048 94.2197 78.6973 95.0791 77.623C95.9385 76.5488 97.1344 76.0117 98.667 76.0117C100.264 76.0117 101.489 76.5918 102.341 77.752H102.48L102.405 76.9033L102.362 76.0762V71.2852H104.146V88H102.695L102.459 86.4209ZM98.8926 86.7217C100.11 86.7217 100.991 86.3923 101.535 85.7334C102.087 85.0674 102.362 83.9967 102.362 82.5215V82.1455C102.362 80.4769 102.083 79.2881 101.524 78.5791C100.973 77.863 100.089 77.5049 98.8711 77.5049C97.8255 77.5049 97.0234 77.9131 96.4648 78.7295C95.9134 79.5387 95.6377 80.6846 95.6377 82.167C95.6377 83.6709 95.9134 84.806 96.4648 85.5723C97.0163 86.3385 97.8255 86.7217 98.8926 86.7217ZM116.247 88H114.421V72.2949H123.176V73.917H116.247V79.6641H122.757V81.2861H116.247V88ZM130.741 88.2148C129.001 88.2148 127.626 87.6849 126.616 86.625C125.614 85.5651 125.112 84.0934 125.112 82.21C125.112 80.3122 125.578 78.8047 126.509 77.6875C127.447 76.5703 128.704 76.0117 130.279 76.0117C131.755 76.0117 132.922 76.4987 133.781 77.4727C134.641 78.4395 135.07 79.7178 135.07 81.3076V82.4355H126.96C126.996 83.8177 127.343 84.8669 128.002 85.583C128.668 86.2992 129.603 86.6572 130.806 86.6572C132.073 86.6572 133.326 86.3923 134.565 85.8623V87.4521C133.935 87.7243 133.337 87.9176 132.771 88.0322C132.213 88.154 131.536 88.2148 130.741 88.2148ZM130.258 77.5049C129.312 77.5049 128.557 77.8128 127.991 78.4287C127.433 79.0446 127.103 79.8968 127.003 80.9854H133.158C133.158 79.861 132.908 79.0016 132.406 78.4072C131.905 77.8057 131.189 77.5049 130.258 77.5049ZM143.345 88.2148C141.604 88.2148 140.229 87.6849 139.22 86.625C138.217 85.5651 137.716 84.0934 137.716 82.21C137.716 80.3122 138.181 78.8047 139.112 77.6875C140.05 76.5703 141.307 76.0117 142.883 76.0117C144.358 76.0117 145.525 76.4987 146.385 77.4727C147.244 78.4395 147.674 79.7178 147.674 81.3076V82.4355H139.563C139.599 83.8177 139.947 84.8669 140.605 85.583C141.271 86.2992 142.206 86.6572 143.409 86.6572C144.677 86.6572 145.93 86.3923 147.169 85.8623V87.4521C146.539 87.7243 145.941 87.9176 145.375 88.0322C144.816 88.154 144.14 88.2148 143.345 88.2148ZM142.861 77.5049C141.916 77.5049 141.16 77.8128 140.595 78.4287C140.036 79.0446 139.707 79.8968 139.606 80.9854H145.762C145.762 79.861 145.511 79.0016 145.01 78.4072C144.508 77.8057 143.792 77.5049 142.861 77.5049ZM158.988 86.4209H158.892C158.068 87.6169 156.836 88.2148 155.196 88.2148C153.657 88.2148 152.457 87.6885 151.598 86.6357C150.745 85.583 150.319 84.0863 150.319 82.1455C150.319 80.2048 150.749 78.6973 151.608 77.623C152.468 76.5488 153.664 76.0117 155.196 76.0117C156.793 76.0117 158.018 76.5918 158.87 77.752H159.01L158.935 76.9033L158.892 76.0762V71.2852H160.675V88H159.225L158.988 86.4209ZM155.422 86.7217C156.639 86.7217 157.52 86.3923 158.064 85.7334C158.616 85.0674 158.892 83.9967 158.892 82.5215V82.1455C158.892 80.4769 158.612 79.2881 158.054 78.5791C157.502 77.863 156.618 77.5049 155.4 77.5049C154.355 77.5049 153.553 77.9131 152.994 78.7295C152.443 79.5387 152.167 80.6846 152.167 82.167C152.167 83.6709 152.443 84.806 152.994 85.5723C153.546 86.3385 154.355 86.7217 155.422 86.7217ZM170.195 76.0332C171.742 76.0332 172.942 76.5632 173.794 77.623C174.653 78.6758 175.083 80.1689 175.083 82.1025C175.083 84.0361 174.65 85.54 173.783 86.6143C172.924 87.6813 171.728 88.2148 170.195 88.2148C169.429 88.2148 168.727 88.0752 168.09 87.7959C167.46 87.5094 166.93 87.0726 166.5 86.4854H166.371L165.995 88H164.717V71.2852H166.5V75.3457C166.5 76.2552 166.471 77.0716 166.414 77.7949H166.5C167.331 76.6204 168.562 76.0332 170.195 76.0332ZM169.938 77.5264C168.72 77.5264 167.843 77.8773 167.306 78.5791C166.769 79.2738 166.5 80.4482 166.5 82.1025C166.5 83.7568 166.776 84.9421 167.327 85.6582C167.879 86.3672 168.763 86.7217 169.98 86.7217C171.076 86.7217 171.893 86.3242 172.43 85.5293C172.967 84.7272 173.235 83.5778 173.235 82.0811C173.235 80.5485 172.967 79.4062 172.43 78.6543C171.893 77.9023 171.062 77.5264 169.938 77.5264ZM185.699 88L185.345 86.3242H185.259C184.672 87.0618 184.084 87.5632 183.497 87.8281C182.917 88.0859 182.19 88.2148 181.316 88.2148C180.149 88.2148 179.232 87.9141 178.566 87.3125C177.908 86.7109 177.578 85.8551 177.578 84.7451C177.578 82.3675 179.479 81.1214 183.282 81.0068L185.28 80.9424V80.2119C185.28 79.2881 185.08 78.6077 184.679 78.1709C184.285 77.7269 183.651 77.5049 182.777 77.5049C181.796 77.5049 180.686 77.8057 179.447 78.4072L178.899 77.043C179.479 76.7279 180.113 76.4808 180.801 76.3018C181.495 76.1227 182.19 76.0332 182.885 76.0332C184.288 76.0332 185.327 76.3447 186 76.9678C186.68 77.5908 187.021 78.5898 187.021 79.9648V88H185.699ZM181.671 86.7432C182.781 86.7432 183.651 86.4388 184.281 85.8301C184.919 85.2214 185.237 84.3691 185.237 83.2734V82.21L183.454 82.2852C182.036 82.3353 181.012 82.5573 180.382 82.9512C179.759 83.3379 179.447 83.943 179.447 84.7666C179.447 85.4111 179.641 85.9017 180.027 86.2383C180.421 86.5749 180.969 86.7432 181.671 86.7432ZM195.66 88.2148C193.956 88.2148 192.634 87.6921 191.696 86.6465C190.765 85.5938 190.3 84.1077 190.3 82.1885C190.3 80.2191 190.772 78.6973 191.718 77.623C192.67 76.5488 194.024 76.0117 195.778 76.0117C196.344 76.0117 196.91 76.0726 197.476 76.1943C198.041 76.3161 198.485 76.4593 198.808 76.624L198.26 78.1387C197.866 77.9811 197.436 77.8522 196.971 77.752C196.505 77.6445 196.093 77.5908 195.735 77.5908C193.343 77.5908 192.147 79.1162 192.147 82.167C192.147 83.6136 192.438 84.7236 193.018 85.4971C193.605 86.2705 194.471 86.6572 195.617 86.6572C196.598 86.6572 197.604 86.446 198.636 86.0234V87.6025C197.848 88.0107 196.856 88.2148 195.66 88.2148ZM203.451 81.9736C203.759 81.5368 204.228 80.9639 204.858 80.2549L208.661 76.2266H210.777L206.008 81.2432L211.11 88H208.951L204.794 82.4355L203.451 83.5957V88H201.689V71.2852H203.451V80.1475C203.451 80.5413 203.423 81.1501 203.365 81.9736H203.451Z" fill="#252A2E"/>
<defs>
<clipPath id="clip0_7345_83030">
<rect width="27" height="27" fill="white" transform="translate(3 66)"/>
</clipPath>
</defs>
</svg>

<svg width="468" height="94" fill="none" xmlns="http://www.w3.org/2000/svg"><rect x="2" y="2" width="464" height="52" rx="2" fill="#fff"/><path d="M22.972 37h-1.837V22.906h-4.942v-1.611h11.699v1.611h-4.92V37zM34.78 25.012c1.003 0 1.862.222 2.578.666.717.444 1.264 1.067 1.644 1.869.38.795.57 1.726.57 2.793v1.106h-8.133c.022 1.382.366 2.435 1.032 3.159.666.723 1.604 1.085 2.814 1.085.745 0 1.404-.069 1.977-.205a10.9 10.9 0 001.783-.601v1.568a8.676 8.676 0 01-1.773.58c-.58.122-1.267.183-2.062.183-1.132 0-2.12-.23-2.965-.688-.838-.465-1.49-1.145-1.955-2.04-.465-.896-.698-1.992-.698-3.288 0-1.267.211-2.363.634-3.287.43-.93 1.03-1.647 1.804-2.148.78-.502 1.697-.752 2.75-.752zm-.021 1.46c-.953 0-1.712.312-2.278.935-.565.623-.902 1.493-1.01 2.61h6.231c-.007-.701-.118-1.317-.333-1.847-.208-.537-.526-.953-.956-1.246-.43-.301-.981-.451-1.654-.451zm10.895 4.502l-4.071-5.747h2.041l3.104 4.533 3.094-4.533h2.02l-4.072 5.747L52.067 37h-2.04l-3.299-4.802L43.41 37h-2.02l4.265-6.026zm12.765 4.78c.294 0 .594-.025.902-.075.308-.05.559-.111.752-.183v1.386c-.207.093-.498.172-.87.236a6.179 6.179 0 01-1.074.097 4.32 4.32 0 01-1.697-.322c-.509-.222-.917-.595-1.225-1.118-.3-.522-.451-1.246-.451-2.17v-6.982H53.08v-.87l1.687-.698.709-2.557h1.074v2.729h3.448v1.396H56.55v6.929c0 .737.168 1.289.505 1.654.343.365.798.548 1.364.548zM68.94 37V21.295h1.827V37H68.94zm11.702-11.988c1.396 0 2.452.343 3.168 1.031.717.68 1.075 1.776 1.075 3.287V37h-1.762v-7.552c0-.98-.226-1.715-.677-2.202-.444-.487-1.128-.73-2.052-.73-1.303 0-2.22.368-2.75 1.106-.53.738-.794 1.808-.794 3.212V37h-1.784V25.227h1.44l.268 1.697h.097c.25-.415.57-.763.956-1.042.387-.287.82-.502 1.3-.645.48-.15.985-.225 1.515-.225zm13.699 0c1.468 0 2.639.505 3.513 1.514.873 1.01 1.31 2.528 1.31 4.555 0 1.34-.2 2.464-.602 3.373-.4.91-.966 1.597-1.697 2.063-.723.465-1.579.698-2.567.698-.623 0-1.171-.083-1.644-.247a3.878 3.878 0 01-1.214-.666 4.347 4.347 0 01-.838-.913h-.128l.075 1.01c.036.393.053.737.053 1.03v4.835H88.81V25.227h1.471l.237 1.74h.085c.23-.358.509-.684.838-.978.33-.3.73-.537 1.203-.709.48-.179 1.046-.268 1.698-.268zm-.312 1.504c-.816 0-1.475.157-1.976.472-.494.315-.856.788-1.085 1.418-.23.623-.351 1.408-.365 2.353v.343c0 .996.107 1.838.322 2.525.222.688.583 1.21 1.085 1.568.508.358 1.189.537 2.04.537.731 0 1.34-.197 1.827-.59.487-.394.849-.942 1.085-1.644.243-.709.365-1.522.365-2.438 0-1.39-.272-2.493-.816-3.309-.537-.824-1.365-1.235-2.482-1.235zm18.222-1.29V37h-1.461l-.258-1.654h-.096a3.427 3.427 0 01-.946 1.031c-.387.28-.823.487-1.31.623-.48.143-.992.215-1.536.215-.931 0-1.712-.15-2.342-.451a3.036 3.036 0 01-1.429-1.397c-.315-.63-.473-1.44-.473-2.427v-7.713h1.805v7.583c0 .982.222 1.716.666 2.203.444.48 1.121.72 2.03.72.874 0 1.569-.165 2.084-.495.523-.33.899-.813 1.128-1.45.229-.644.344-1.432.344-2.363v-6.198h1.794zm7.823 10.528c.294 0 .595-.025.903-.075.307-.05.558-.111.751-.183v1.386c-.207.093-.497.172-.87.236a6.174 6.174 0 01-1.074.097 4.317 4.317 0 01-1.697-.322c-.509-.222-.917-.595-1.225-1.118-.301-.522-.451-1.246-.451-2.17v-6.982h-1.676v-.87l1.687-.698.709-2.557h1.074v2.729h3.448v1.396h-3.448v6.929c0 .737.168 1.289.505 1.654.344.365.798.548 1.364.548z" fill="#252A2E"/><rect x="2" y="2" width="464" height="52" rx="2" stroke="#DA212C" stroke-width="4"/><g clip-path="url(#prefix__clip0_7345_83030)"><path d="M25.387 66.056H7.5a4.513 4.513 0 00-4.5 4.5V88.5C3 90.975 5.025 93 7.5 93h17.887c2.476 0 4.5-2.025 4.5-4.5V70.556c0-2.475-1.968-4.5-4.5-4.5z" fill="#DA212C"/><path d="M25.387 68.025a2.52 2.52 0 012.532 2.531V88.5a2.52 2.52 0 01-2.532 2.531H7.5A2.52 2.52 0 014.969 88.5V70.556A2.52 2.52 0 017.5 68.025h17.887zm0-1.969H7.5a4.513 4.513 0 00-4.5 4.5V88.5C3 90.975 5.025 93 7.5 93h17.887c2.476 0 4.5-2.025 4.5-4.5V70.556c0-2.475-1.968-4.5-4.5-4.5z" fill="#9B1118"/><path d="M21.45 82.875l-3.488-3.431 3.544-3.488-1.519-1.519-3.487 3.544-3.488-3.543-1.518 1.518 3.543 3.488-3.43 3.431 1.462 1.519 3.43-3.431 3.432 3.43 1.519-1.518z" fill="#fff"/></g><path d="M39.16 88V72.295h1.825V88H39.16zm14.182 0v-7.616c0-.96-.219-1.676-.655-2.149-.437-.472-1.121-.709-2.052-.709-1.232 0-2.134.333-2.707 1-.573.665-.86 1.765-.86 3.297V88h-1.783V76.227h1.45l.29 1.61h.086a3.606 3.606 0 011.537-1.342c.658-.322 1.392-.483 2.202-.483 1.418 0 2.485.344 3.2 1.031.717.68 1.075 1.772 1.075 3.276V88h-1.783zm8.285 0l-4.469-11.773h1.912l2.535 6.982c.573 1.633.91 2.693 1.01 3.18h.086c.079-.38.326-1.164.741-2.353.423-1.196 1.365-3.799 2.826-7.81h1.912L63.71 88h-2.083zm15.934 0l-.355-1.676h-.086c-.587.738-1.174 1.24-1.762 1.504-.58.258-1.307.387-2.18.387-1.168 0-2.084-.3-2.75-.903-.66-.601-.989-1.457-.989-2.567 0-2.377 1.902-3.624 5.705-3.738l1.998-.065v-.73c0-.924-.2-1.604-.602-2.041-.394-.444-1.028-.666-1.901-.666-.981 0-2.091.3-3.33.902l-.548-1.364a8.4 8.4 0 011.901-.741 8.318 8.318 0 012.084-.269c1.404 0 2.442.312 3.115.935.68.623 1.02 1.622 1.02 2.997V88h-1.32zm-4.029-1.257c1.11 0 1.98-.304 2.61-.913.638-.609.957-1.46.957-2.557V82.21l-1.784.075c-1.418.05-2.442.272-3.072.666-.623.387-.934.992-.934 1.816 0 .644.193 1.135.58 1.471.394.337.941.505 1.643.505zM84.6 88h-1.784V71.285H84.6V88zm5.814 0h-1.783V76.227h1.783V88zm-1.933-14.964c0-.408.1-.705.3-.892.2-.193.451-.29.752-.29.287 0 .534.097.741.29.208.194.312.491.312.892s-.104.702-.312.903a1.05 1.05 0 01-.74.29c-.302 0-.552-.097-.753-.29-.2-.201-.3-.502-.3-.903zm13.978 13.385h-.097c-.823 1.196-2.055 1.794-3.695 1.794-1.54 0-2.74-.526-3.599-1.58-.852-1.052-1.278-2.549-1.278-4.49 0-1.94.43-3.448 1.29-4.522.859-1.074 2.054-1.611 3.587-1.611 1.597 0 2.822.58 3.674 1.74h.139l-.075-.849-.043-.827v-4.79h1.784V88h-1.451l-.236-1.58zm-3.566.3c1.217 0 2.098-.329 2.642-.988.552-.666.827-1.736.827-3.212v-.376c0-1.668-.279-2.857-.838-3.566-.551-.716-1.435-1.074-2.653-1.074-1.045 0-1.848.408-2.406 1.225-.552.809-.827 1.955-.827 3.437 0 1.504.275 2.639.827 3.405.551.766 1.36 1.15 2.428 1.15zM116.247 88h-1.826V72.295h8.755v1.622h-6.929v5.747h6.51v1.622h-6.51V88zm14.494.215c-1.74 0-3.115-.53-4.125-1.59-1.002-1.06-1.504-2.532-1.504-4.415 0-1.898.466-3.405 1.397-4.522.938-1.118 2.195-1.676 3.77-1.676 1.476 0 2.643.487 3.502 1.46.86.968 1.289 2.246 1.289 3.836v1.127h-8.11c.036 1.383.383 2.432 1.042 3.148.666.716 1.601 1.074 2.804 1.074 1.267 0 2.52-.265 3.759-.795v1.59a9.104 9.104 0 01-1.794.58c-.558.122-1.235.183-2.03.183zm-.483-10.71c-.946 0-1.701.308-2.267.924-.558.616-.888 1.468-.988 2.556h6.155c0-1.124-.25-1.983-.752-2.578-.501-.601-1.217-.902-2.148-.902zm13.087 10.71c-1.741 0-3.116-.53-4.125-1.59-1.003-1.06-1.504-2.532-1.504-4.415 0-1.898.465-3.405 1.396-4.522.938-1.118 2.195-1.676 3.771-1.676 1.475 0 2.642.487 3.502 1.46.859.968 1.289 2.246 1.289 3.836v1.127h-8.111c.036 1.383.384 2.432 1.042 3.148.666.716 1.601 1.074 2.804 1.074 1.268 0 2.521-.265 3.76-.795v1.59a9.104 9.104 0 01-1.794.58c-.559.122-1.235.183-2.03.183zm-.484-10.71c-.945 0-1.701.308-2.266.924-.559.616-.888 1.468-.989 2.556h6.156c0-1.124-.251-1.983-.752-2.578-.502-.601-1.218-.902-2.149-.902zm16.127 8.916h-.096c-.824 1.196-2.056 1.794-3.696 1.794-1.539 0-2.739-.526-3.598-1.58-.853-1.052-1.279-2.549-1.279-4.49 0-1.94.43-3.448 1.289-4.522.86-1.074 2.056-1.611 3.588-1.611 1.597 0 2.822.58 3.674 1.74h.14l-.075-.849-.043-.827v-4.79h1.783V88h-1.45l-.237-1.58zm-3.566.3c1.217 0 2.098-.329 2.642-.988.552-.666.828-1.736.828-3.212v-.376c0-1.668-.28-2.857-.838-3.566-.552-.716-1.436-1.074-2.654-1.074-1.045 0-1.847.408-2.406 1.225-.551.809-.827 1.955-.827 3.437 0 1.504.276 2.639.827 3.405.552.766 1.361 1.15 2.428 1.15zm14.773-10.688c1.547 0 2.747.53 3.599 1.59.859 1.053 1.289 2.546 1.289 4.48 0 1.933-.433 3.437-1.3 4.511-.859 1.067-2.055 1.6-3.588 1.6-.766 0-1.468-.139-2.105-.418a4.006 4.006 0 01-1.59-1.31h-.129L165.995 88h-1.278V71.285h1.783v4.06c0 .91-.029 1.727-.086 2.45h.086c.831-1.175 2.062-1.762 3.695-1.762zm-.257 1.493c-1.218 0-2.095.351-2.632 1.053-.537.695-.806 1.87-.806 3.524s.276 2.84.827 3.555c.552.71 1.436 1.064 2.653 1.064 1.096 0 1.913-.398 2.45-1.193.537-.802.805-1.951.805-3.448 0-1.532-.268-2.675-.805-3.427-.537-.752-1.368-1.128-2.492-1.128zM185.699 88l-.354-1.676h-.086c-.587.738-1.175 1.24-1.762 1.504-.58.258-1.307.387-2.181.387-1.167 0-2.084-.3-2.75-.903-.658-.601-.988-1.457-.988-2.567 0-2.377 1.901-3.624 5.704-3.738l1.998-.065v-.73c0-.924-.2-1.604-.601-2.041-.394-.444-1.028-.666-1.902-.666-.981 0-2.091.3-3.33.902l-.548-1.364a8.394 8.394 0 011.902-.741 8.312 8.312 0 012.084-.269c1.403 0 2.442.312 3.115.935.68.623 1.021 1.622 1.021 2.997V88h-1.322zm-4.028-1.257c1.11 0 1.98-.304 2.61-.913.638-.609.956-1.46.956-2.557V82.21l-1.783.075c-1.418.05-2.442.272-3.072.666-.623.387-.935.992-.935 1.816 0 .644.194 1.135.58 1.471.394.337.942.505 1.644.505zm13.989 1.472c-1.704 0-3.026-.523-3.964-1.569-.931-1.052-1.396-2.538-1.396-4.457 0-1.97.472-3.492 1.418-4.566.952-1.074 2.306-1.611 4.06-1.611.566 0 1.132.06 1.698.182.565.122 1.009.265 1.332.43l-.548 1.515a8.016 8.016 0 00-1.289-.387 5.579 5.579 0 00-1.236-.161c-2.392 0-3.588 1.525-3.588 4.576 0 1.447.291 2.557.871 3.33.587.773 1.453 1.16 2.599 1.16.981 0 1.987-.211 3.019-.634v1.58c-.788.408-1.78.612-2.976.612zm7.791-6.241c.308-.437.777-1.01 1.407-1.72l3.803-4.027h2.116l-4.769 5.016L211.11 88h-2.159l-4.157-5.564-1.343 1.16V88h-1.762V71.285h1.762v8.862c0 .394-.028 1.003-.086 1.827h.086z" fill="#252A2E"/><defs><clipPath id="prefix__clip0_7345_83030"><path fill="#fff" transform="translate(3 66)" d="M0 0h27v27H0z"/></clipPath></defs></svg>
